X:1
T:James Gibb editions
T:When all Thy mercies, O my God - Barnby
%%score [ ( 1 2 ) ( 3 4 ) ]
L:1/8
Q:1/4=80
M:4/4
K:E
V:1 treble nm="Midi_74"
V:2 treble 
V:3 bass nm="Midi_74"
V:4 bass 
V:1
"^When all Thy mercies, O my God""^Joseph Barnby\n(1838-96)""^C.M.""^Joseph Addison\n(1672-1719)"!mf! E2 | %1
 F2 G2 A2 c2 | B2 A2 G2 || B2 | c2 d2!f! e2 c2 | B6 ||[M:4/4] B2 | c2 G2 A2 c2 | B2 A2 G2 || B2 | %10
 e2 G2 c2 D2 | E6- || A4 G4 |] %13
V:2
 B,2 | B,2 B,2 E2 E2 | E2 D2 E2 || F2 | G2 F2 E2 E2 | D6 ||[M:4/4] F2 | ^E2 C2 F2 =E2 | E2 D2 E2 || %9
 E2 | E2 E2 E2 B,2 | B,6 || E4 E4 |] %13
V:3
 G,2 | F,2 E,2 E,2"^cresc." F,2 |"^1" F,2 B,2 B,2 || B,2 | G,2 ^B,2 C2 ^A,2 | B,6 || %6
[M:4/4]"^1 When all thy mercies, O my God,\nmy rising soul surveys,\ntransported with the view, I'm lost\nin wonder, love, and praise.\n\n2 Unnumbered comforts to my soul\nthy tender care bestowed,\nbefore my infant heart conceived\nfrom whom those comforts flowed.\n\n3 When in the slippery paths of youth\nwith heedless steps I ran,\nthine arm unseen conveyed me safe,\nand led me up to man." B,2 | %7
 B,2 B,2 A,2 F,2 | F,2 F,2 E,2 || G,2 | %10
"^4 Ten thousand thousand precious gifts\nmy daily thanks employ,\nand not the least a cheerful heart\nwhich tastes those gifts with joy.\n\n5 Through every period of my life\nthy goodness I'll pursue,\nand after death in distant worlds\nthe glorious theme renew.\n\n6 Through all eternity to thee,\na joyful song I'll raise;\nfor O, eternity's too short\nto utter all thy praise." A,2"^1" B,2 C2 A,2 | %11
 G,6 || C4 B,4 |] %13
V:4
 E,2 | D,2 E,2 C,2 A,,2 | B,,2 B,,2 E,2 || D,2 | E,2 D,2 C,2 F,2 | B,,6 ||[M:4/4] D,2 | %7
 C,2 ^E,2 F,2 A,,2 | B,,2 B,,2 C,2 || =D,2 | C,2 B,,2 A,,2 B,,2 | E,6 || A,,4 E,4 |] %13

